X:4
T:La Paix, oui la Paix
M:C
L:1/4
K:C
G,|"Do"E2 EG|"Rem"F2 FA|"Sol"G2 FD|"Do"E2 zG,|"Do"E2 EG|"Rem"F2 FA|"Sol"G2 AG|"Do"G2 zG|
"Fa"c2 cB|"Rem"A3/A/ Ac|"Sol"B3/B/ BA|"Do"G2 zG,|"Lam"E2 EG|"Rem"F2 FA|"Sol"G2 FD|\
"Do"C2 z||
